!! 00000] TT[WS
!!!OTL: Yingmai maodun
!!!ARE: Asia, China, Shanxi Zouquan
!! Ethnic Group: Han
!! WI, 302 (2)
!!!SCT: J0366
!!!YEM: Copyright 1995, estate of Helmut Schaffrath.
**kern
*ICvox
*Ivox
*M2/4
*k[f#c#g#]
*A:
{8bb
8aa
8bb
8ccc#
=1
8eee
8aa
8gg#
8ff#
=2
8bb
8aa
8gg#
8ff#
=3
4.ee
8ff#}
=4
{8bb
8aa
8bb
8ccc#
=5
8ee
8ff#
8aa
8ccc#
=6
8bb
8aa
8gg#
8ff#
=7
2ee}
=8
{8aa
8ff#
8aa
8bb
=9
8cc#
8ee
8ff#
8bb
=10
8gg#
8ff#
8ee
8gg#
=11
2ff#}
=12
{4.ee
8ff#
=13
4aa
8bb
8ccc#
=14
8bb
8aa
8gg#
8ff#
=15
4.ee
8gg#
=16
8ff#
8cc#
4ee}
==
!!!AGN: Xiaodiao. Xinminge, Xuanchuan
!! Neue Text. Politische Liede
!!!ONB: ESAC (Essen Associative Code) Database: CHINA
!!!AMT: simple duple
!!!AIN: vox
!!!EED: Helmut Schaffrath
!!!EEV: 1.0
*-
